X: 117
T:Lord George Gordon's Reel
B:William Marshall - A Collection of Strathspey Reels (1781)
C:William Marshall
L:1/8
M:C|
O:Scotland
R:Reel
Z:Clark Bernst + Richard Robinson
%%Page:1 - 1
F:http://richardrobinson.tunebook.org.uk/tune/3960
%%TBL:{"version":1,"type":"tune","id":"3960"}
K:C
%%staves {1  2}
V:1
c2 (ec) (Gc)(ec) | FdEc DG,B,G, | c2 (ec) (Gc)(ec) | fage c/c/c c2 :| \
(3ege ce (3faf df | (3ege (ce) fddf |
(3ege ce (3faf df | gefd c/c/c (cf) | \
(3ege ce (3faf df | (3ege (ce) fddF | \
ECFD GEcG | FAGE C/C/C C2 |]
V:2 middle=d clef=bass
L:1/4
cccc | dcgG | cccc | fgcc :| \
ccdd | ccff | ccdd | gGcc | \
cc'dd' | cc'ff | cdec | fgcc |]

